X:256
T: ES GIENG EIN KNAB SPAZIEREN
N: E0131A
O: Europa, Mitteleuropa, Deutschland, Schlesien
R: erzaehlendes Volks - Lied, Schalk -, Schelmen - Lied, Vergewaltigung
M: 4/4
L: 1/8
K: Bb
F2 | B2AGF2B2 | c4B2
B2 | d3cB2d2 | c4z2
Bc | d2d2d2ed | c3Bc2
dc | B2B2cBAG | F4
B4 | D2D2F2F2 | B4
c3e | d2B2cBA2 | B4z2

@@@ Tune index: 3906
